korla-light/actions/symbolic/category-search-symbolic.svg

<svg xmlns="http://www.w3.org/2000/svg" width="16" height="16" version="1.1" viewBox="0 0 16 16">
 <path style="fill:#444444" d="M 8 3 A 4 4 0 0 0 4 7 A 4 4 0 0 0 8 11 A 4 4 0 0 0 10.332031 10.244141 L 13.359375 12.767578 A 1.0001 1.0001 0 1 0 14.640625 11.232422 L 11.611328 8.7089844 A 4 4 0 0 0 12 7 A 4 4 0 0 0 8 3 z M 1 3.0039062 L 1 5.0039062 L 3 5.0039062 L 3 3.0039062 L 1 3.0039062 z M 8 5 A 2 2 0 0 1 10 7 A 2 2 0 0 1 9.96875 7.3398438 A 2 2 0 0 1 8.6894531 8.875 A 2 2 0 0 1 8.4980469 8.9355469 A 2 2 0 0 1 8.3183594 8.9726562 A 2 2 0 0 1 8.2265625 8.984375 A 2 2 0 0 1 8.1113281 8.9960938 A 2 2 0 0 1 8.1035156 8.9960938 A 2 2 0 0 1 8 9 A 2 2 0 0 1 6 7 A 2 2 0 0 1 6.0097656 6.8007812 A 2 2 0 0 1 8 5 z M 1 7.0039062 L 1 9.0039062 L 3 9.0039062 L 3 7.0039062 L 1 7.0039062 z M 1 11.003906 L 1 13.003906 L 3 13.003906 L 3 11.003906 L 1 11.003906 z"/>
</svg>

<svg style="clip-rule:evenodd;fill-rule:evenodd;stroke-linejoin:round;stroke-miterlimit:2" version="1.1" viewBox="0 0 16 16" xmlns="http://www.w3.org/2000/svg">
 <path d="m8 3c-2.194 0-4 1.806-4 4s1.806 4 4 4c0.837-2e-3 1.653-0.266 2.332-0.756l3.027 2.524c0.183 0.16 0.417 0.248 0.66 0.248 0.549 0 1-0.451 1-1 0-0.305-0.139-0.594-0.378-0.784l-3.03-2.523c0.255-0.534 0.387-1.118 0.389-1.709 0-2.194-1.806-4-4-4zm-7 4e-3v2h2v-2h-2zm7 1c1.644 0 2.996 1.352 2.996 2.996-1e-3 0.171-0.017 0.341-0.047 0.509-0.182 1.052-0.914 1.931-1.916 2.3-0.094 0.035-0.19 0.065-0.287 0.091-0.089 0.022-0.179 0.041-0.269 0.055-0.046 7e-3 -0.092 0.013-0.138 0.018-0.057 7e-3 -0.115 0.013-0.172 0.017h-0.012c-0.052 4e-3 -0.103 5e-3 -0.155 6e-3 -1.644 0-2.996-1.352-2.996-2.996 0-0.1 5e-3 -0.199 0.015-0.298 0.152-1.524 1.45-2.698 2.981-2.698zm-7 3v2h2v-2h-2zm0 4v2h2v-2h-2z" style="fill-rule:nonzero;fill:rgb(68,68,68)"/>
</svg>
